;FLAVOR:RepRap
;TIME:9726
;Generated with Cura_SteamEngine 2.3.1
M104 S190
M109 S190

;LAYER_COUNT:59
;LAYER:-7
M107
M205 X25
G1 F2400 E-1
G1 Z20.4
G0 F4800 X15.404 Y82.016 Z1
M205 X20
G1 Z.6
G1 F2400 E0
G1 F480 X94.259 Y3.163 E27.81788
G1 X94.695 Y2.78 E27.96264
G1 X95.166 Y2.46 E28.10469
G1 X95.679 Y2.199 E28.24826
G1 X96.203 Y2.014 E28.38688
G1 X96.767 Y1.889 E28.53099
G1 X97.332 Y1.838 E28.6725
G1 X97.898 Y1.859 E28.81379
G1 X98.464 Y1.953 E28.95691
G1 X99.005 Y2.114 E29.09771
G1 X99.525 Y2.343 E29.23945
G1 X100.008 Y2.636 E29.38037
G1 X100.646 Y3.168 E29.58759
G1 X104.076 Y6.597 E30.79744
G1 X104.319 Y6.688 E30.86216
G1 X104.84 Y6.951 E31.00775
G1 X105.305 Y7.264 E31.14757
G1 X105.762 Y7.667 E31.29957
G1 X107.485 Y9.39 E31.9074
G1 X107.873 Y9.831 E32.05393
G1 X108.189 Y10.296 E32.19417
G1 X108.442 Y10.798 E32.3344
G1 X108.531 Y11.052 E32.40154
G1 X113.989 Y16.51 E34.32699
G1 X114.246 Y16.605 E34.39534
G1 X114.76 Y16.865 E34.53903
G1 X115.227 Y17.181 E34.67969
G1 X115.675 Y17.577 E34.82884
G1 X117.378 Y19.281 E35.4298
G1 X117.768 Y19.725 E35.57721
G1 X118.092 Y20.202 E35.72105
G1 X118.345 Y20.702 E35.86084
G1 X118.438 Y20.959 E35.92902
G1 X121.837 Y24.359 E37.12828
G1 X122.22 Y24.795 E37.27305
G1 X122.54 Y25.266 E37.41509
G1 X122.801 Y25.779 E37.55867
G1 X122.986 Y26.303 E37.69729
G1 X123.111 Y26.867 E37.84139
G1 X123.162 Y27.432 E37.9829
G1 X123.141 Y27.998 E38.12419
G1 X123.047 Y28.564 E38.26731
G1 X122.886 Y29.105 E38.40812
G1 X122.657 Y29.625 E38.54985
G1 X122.364 Y30.108 E38.69077
G1 X121.832 Y30.746 E38.89799
G1 X88.206 Y64.372 E50.76047
G1 X88.865 Y66.172 E51.23863
G1 X89.79 Y66.248 E51.47015
G1 X89.948 Y66.271 E51.50998
G1 X90.542 Y66.364 E51.65996
G1 X90.694 Y66.389 E51.69838
G1 X90.992 Y66.445 E51.77402
G1 X91.208 Y66.49 E51.82906
G1 X91.76 Y66.616 E51.9703
G1 X91.934 Y66.658 E52.01495
G1 X92.337 Y66.763 E52.11883
G1 X92.567 Y66.826 E52.17832
G1 X93.131 Y66.993 E52.32505
G1 X93.237 Y67.026 E52.35274
G1 X93.566 Y67.133 E52.43904
G1 X93.77 Y67.206 E52.49309
G1 X94.453 Y67.465 E52.6753
G1 X94.558 Y67.505 E52.70333
G1 X94.843 Y67.62 E52.78
G1 X95.062 Y67.713 E52.83935
G1 X95.613 Y67.964 E52.99038
G1 X95.728 Y68.019 E53.02218
G1 X96.122 Y68.214 E53.13185
G1 X96.228 Y68.267 E53.16141
G1 X96.725 Y68.532 E53.30191
G1 X96.938 Y68.652 E53.36289
G1 X97.243 Y68.833 E53.45136
G1 X97.954 Y69.269 E53.65942
G1 X98.116 Y69.373 E53.70744
G1 X98.377 Y69.548 E53.78582
G1 X98.58 Y69.691 E53.84777
G1 X98.991 Y69.995 E53.97529
G1 X99.121 Y70.094 E54.01605
G1 X99.122 Y70.093 E54.0164
G1 X99.522 Y70.408 E54.14341
G1 X99.626 Y70.492 E54.17676
G1 X100.064 Y70.857 E54.31898
G1 X100.206 Y70.98 E54.36584
G1 X100.5 Y71.246 E54.46474
G1 X100.59 Y71.328 E54.49512
G1 X101.023 Y71.739 E54.64404
G1 X101.142 Y71.857 E54.68584
G1 X101.47 Y72.195 E54.80333
G1 X101.583 Y72.315 E54.84445
G1 X102.023 Y72.799 E55.00761
G1 X102.123 Y72.912 E55.04526
G1 X102.382 Y73.218 E55.14526
G1 X102.49 Y73.35 E55.1878
G1 X102.765 Y73.699 E55.29864
G1 X102.914 Y73.893 E55.35966
G1 X103.178 Y74.247 E55.46982
G1 X103.177 Y74.247 E55.47007
G1 X103.27 Y74.377 E55.50994
G1 X103.597 Y74.851 E55.65359
G1 X103.685 Y74.984 E55.69337
G1 X103.919 Y75.345 E55.80068
G1 X104.03 Y75.525 E55.85344
G1 X104.287 Y75.965 E55.98055
G1 X104.377 Y76.127 E56.02678
G1 X104.634 Y76.596 E56.16018
G1 X104.737 Y76.79 E56.21497
G1 X104.893 Y77.106 E56.30288
G1 X104.961 Y77.249 E56.34238
G1 X105.246 Y77.876 E56.51419
G1 X105.307 Y78.014 E56.55182
G1 X105.501 Y78.479 E56.67751
G1 X105.56 Y78.627 E56.71725
G1 X105.696 Y78.986 E56.81302
G1 X105.736 Y79.093 E56.84151
G1 X105.883 Y79.514 E56.95275
G1 X105.954 Y79.732 E57.00994
G1 X106.146 Y80.357 E57.17304
G1 X106.218 Y80.609 E57.23841
G1 X106.314 Y80.983 E57.33473
G1 X106.337 Y81.078 E57.35912
G1 X106.336 Y81.078 E57.35937
G1 X106.461 Y81.609 E57.49544
G1 X106.462 Y81.609 E57.49569
G1 X106.511 Y81.846 E57.55606
G1 X106.611 Y82.386 E57.69306
G1 X106.631 Y82.502 E57.72242
G1 X106.632 Y82.502 E57.72267
G1 X106.693 Y82.874 E57.81671
G1 X106.715 Y83.018 E57.85304
G1 X106.714 Y83.018 E57.85329
G1 X106.778 Y83.506 E57.97607
G1 X106.799 Y83.691 E58.02251
G1 X106.845 Y84.199 E58.14975
G1 X106.86 Y84.417 E58.20426
G1 X106.861 Y84.417 E58.20451
G1 X106.884 Y84.921 E58.33036
G1 X106.883 Y84.921 E58.33061
G1 X106.888 Y85.072 E58.3683
G1 X106.897 Y85.678 E58.51949
G1 X106.897 Y85.822 E58.55541
G1 X106.89 Y86.264 E58.66568
G1 X106.888 Y86.366 E58.69113
G1 X106.866 Y86.981 E58.84464
G1 X106.855 Y87.18 E58.89435
G1 X106.822 Y87.588 E58.99646
G1 X106.804 Y87.765 E59.04084
G1 X106.746 Y88.265 E59.1664
G1 X106.725 Y88.424 E59.20641
G1 X106.642 Y88.985 E59.34788
G1 X106.619 Y89.123 E59.38278
G1 X106.546 Y89.528 E59.48543
G1 X106.514 Y89.692 E59.52711
G1 X106.374 Y90.328 E59.68956
G1 X106.335 Y90.489 E59.73089
G1 X106.226 Y90.908 E59.83888
G1 X106.187 Y91.05 E59.87562
G1 X106.013 Y91.652 E60.03193
G1 X105.955 Y91.834 E60.07958
G1 X105.954 Y91.834 E60.07983
G1 X105.866 Y92.1 E60.14972
G1 X105.819 Y92.236 E60.18562
G1 X105.82 Y92.236 E60.18587
G1 X105.588 Y92.868 E60.35381
G1 X105.587 Y92.868 E60.35406
G1 X105.518 Y93.048 E60.40214
G1 X105.311 Y93.548 E60.53714
G1 X105.088 Y94.047 E60.67348
G1 X104.987 Y94.262 E60.73273
G1 X104.986 Y94.262 E60.73298
G1 X104.691 Y94.848 E60.89664
G1 X104.642 Y94.945 E60.92375
G1 X104.643 Y94.945 E60.924
G1 X104.477 Y95.26 E61.01282
G1 X104.476 Y95.26 E61.01306
G1 X104.355 Y95.477 E61.07504
G1 X104.356 Y95.477 E61.07529
G1 X104.082 Y95.941 E61.20971
G1 X104.081 Y95.941 E61.20996
G1 X104.018 Y96.046 E61.24051
G1 X103.79 Y96.409 E61.34744
G1 X103.704 Y96.54 E61.38653
G1 X103.349 Y97.069 E61.54545
G1 X103.271 Y97.18 E61.57929
G1 X103.066 Y97.467 E61.66727
G1 X102.946 Y97.626 E61.71696
G1 X102.552 Y98.131 E61.87674
G1 X102.462 Y98.245 E61.91297
G1 X102.181 Y98.579 E62.02185
G1 X102.071 Y98.705 E62.06357
G1 X101.712 Y99.108 E62.1982
G1 X101.61 Y99.217 E62.23544
G1 X101.18 Y99.666 E62.39052
G1 X101.059 Y99.785 E62.43286
G1 X100.778 Y100.056 E62.53024
G1 X100.677 Y100.151 E62.56483
G1 X100.22 Y100.564 E62.71848
G1 X100.127 Y100.646 E62.74941
G1 X99.753 Y100.964 E62.87187
G1 X99.644 Y101.055 E62.90729
G1 X99.643 Y101.054 E62.90765
G1 X99.204 Y101.402 E63.04739
G1 X99.204 Y101.403 E63.04764
G1 X99.07 Y101.504 E63.0895
G1 X98.713 Y101.767 E63.20011
G1 X98.575 Y101.865 E63.24233
G1 X98.098 Y102.192 E63.38659
G1 X97.928 Y102.304 E63.43737
G1 X97.522 Y102.561 E63.55724
G1 X97.375 Y102.65 E63.6001
G1 X96.947 Y102.9 E63.72375
G1 X96.838 Y102.962 E63.75503
G1 X96.341 Y103.232 E63.89612
G1 X96.234 Y103.289 E63.92636
G1 X95.892 Y103.464 E64.02219
G1 X95.656 Y103.577 E64.08746
G1 X95.056 Y103.846 E64.25149
G1 X95.056 Y103.847 E64.25174
G1 X94.939 Y103.897 E64.28348
G1 X94.603 Y104.036 E64.37418
G1 X94.541 Y104.061 E64.39086
G1 X93.89 Y104.306 E64.56437
G1 X93.778 Y104.347 E64.59412
G1 X93.778 Y104.348 E64.59437
G1 X93.319 Y104.51 E64.71579
G1 X93.319 Y104.509 E64.71604
G1 X93.056 Y104.594 E64.78499
G1 X92.551 Y104.741 E64.91619
G1 X92.407 Y104.782 E64.95354
G1 X92.407 Y104.781 E64.95379
G1 X92.018 Y104.883 E65.0541
G1 X91.841 Y104.926 E65.09954
G1 X91.36 Y105.032 E65.22241
G1 X91.36 Y105.031 E65.22266
G1 X91.209 Y105.062 E65.26111
G1 X90.688 Y105.162 E65.39344
G1 X90.521 Y105.191 E65.43573
G1 X89.906 Y105.288 E65.59104
G1 X89.752 Y105.31 E65.62984
G1 X89.292 Y105.367 E65.74547
G1 X89.138 Y105.383 E65.78409
G1 X88.789 Y105.415 E65.87151
G1 X88.564 Y105.431 E65.92778
G1 X88.564 Y105.432 E65.92803
G1 X87.98 Y105.46 E66.07388
G1 X87.846 Y105.464 E66.10732
G1 X87.263 Y105.471 E66.25276
G1 X87.128 Y105.47 E66.28643
G1 X86.457 Y105.457 E66.45385
G1 X86.255 Y105.452 E66.50425
G1 X85.949 Y105.441 E66.58063
G1 X85.673 Y105.424 E66.64961
G1 X85.321 Y105.391 E66.7378
G1 X85.321 Y105.392 E66.73805
G1 X85.209 Y105.378 E66.76621
G1 X84.483 Y105.289 E66.94867
G1 X84.378 Y105.274 E66.97513
G1 X84.033 Y105.22 E67.06223
G1 X83.901 Y105.197 E67.09566
G1 X83.901 Y105.196 E67.09591
G1 X83.242 Y105.073 E67.26313
G1 X83.242 Y105.074 E67.26338
G1 X83.086 Y105.042 E67.30311
G1 X82.673 Y104.949 E67.40871
G1 X82.546 Y104.918 E67.44132
G1 X81.989 Y104.776 E67.58471
G1 X81.989 Y104.775 E67.58496
G1 X81.839 Y104.733 E67.62382
G1 X81.294 Y104.568 E67.76586
G1 X81.182 Y104.532 E67.79521
G1 X81.182 Y104.531 E67.79546
G1 X80.598 Y104.334 E67.9492
G1 X80.552 Y104.318 E67.96135
G1 X80.552 Y104.317 E67.9616
G1 X80.104 Y104.151 E68.08078
G1 X79.933 Y104.084 E68.12659
G1 X79.432 Y103.879 E68.26162
G1 X79.292 Y103.817 E68.29982
G1 X78.849 Y103.617 E68.42107
G1 X78.849 Y103.618 E68.42132
G1 X78.702 Y103.549 E68.46182
G1 X78.14 Y103.267 E68.61867
G1 X77.992 Y103.19 E68.66029
G1 X77.705 Y103.034 E68.74178
G1 X77.56 Y102.952 E68.78333
G1 X76.945 Y102.592 E68.96109
G1 X76.838 Y102.528 E68.99219
G1 X76.546 Y102.345 E69.07816
G1 X76.371 Y102.23 E69.13039
G1 X75.821 Y101.853 E69.29673
G1 X75.67 Y101.746 E69.34289
G1 X75.375 Y101.528 E69.43439
G1 X75.273 Y101.451 E69.46627
G1 X74.85 Y101.122 E69.59995
G1 X74.692 Y100.993 E69.65083
G1 X74.293 Y100.654 E69.78144
G1 X74.18 Y100.555 E69.81891
G1 X73.824 Y100.233 E69.93865
G1 X73.722 Y100.138 E69.97342
G1 X73.324 Y99.754 E70.11138
G1 X73.184 Y99.615 E70.16059
G1 X72.891 Y99.31 E70.2661
G1 X72.765 Y99.174 E70.31234
G1 X72.366 Y98.732 E70.46088
G1 X72.242 Y98.591 E70.50772
G1 X71.926 Y98.215 E70.63024
G1 X71.821 Y98.084 E70.67212
G1 X71.616 Y97.823 E70.75491
G1 X71.49 Y97.657 E70.80689
G1 X71.089 Y97.104 E70.97729
G1 X71.016 Y96.999 E71.00919
G1 X70.815 Y96.705 E71.09803
G1 X70.702 Y96.534 E71.14916
G1 X70.347 Y95.966 E71.31624
G1 X70.255 Y95.81 E71.36142
G1 X70.069 Y95.486 E71.45461
G1 X70.033 Y95.421 E71.47315
G1 X69.716 Y94.843 E71.63759
G1 X69.608 Y94.635 E71.69606
G1 X69.477 Y94.367 E71.77047
G1 X69.376 Y94.153 E71.8295
G1 X69.112 Y93.564 E71.99051
G1 X69.113 Y93.564 E71.99076
G1 X69.042 Y93.401 E72.03511
G1 X68.93 Y93.132 E72.10779
G1 X68.851 Y92.93 E72.1619
G1 X68.621 Y92.308 E72.32733
G1 X68.575 Y92.176 E72.36219
G1 X68.434 Y91.756 E72.47271
G1 X68.386 Y91.603 E72.51271
G1 X68.211 Y91.004 E72.66838
G1 X68.173 Y90.868 E72.7036
G1 X68.089 Y90.547 E72.78637
G1 X68.088 Y90.547 E72.78662
G1 X68.046 Y90.369 E72.83224
G1 X68.047 Y90.369 E72.83249
G1 X67.904 Y89.713 E72.99998
G1 X67.881 Y89.595 E73.02997
G1 X67.814 Y89.247 E73.11837
G1 X67.79 Y89.104 E73.15454
G1 X67.682 Y88.399 E73.33245
G1 X67.543 Y87.391 E73.58628
G1 X65.781 Y86.798 E74.05004
G1 X30.734 Y121.844 E86.41364
G1 X30.298 Y122.227 E86.5584
G1 X29.827 Y122.547 E86.70044
G1 X29.314 Y122.808 E86.84402
G1 X28.79 Y122.993 E86.98264
G1 X28.226 Y123.118 E87.12675
G1 X27.661 Y123.169 E87.26826
G1 X27.095 Y123.148 E87.40954
G1 X26.529 Y123.054 E87.55267
G1 X25.988 Y122.893 E87.69347
G1 X25.468 Y122.664 E87.83521
G1 X24.985 Y122.371 E87.97613
G1 X24.347 Y121.839 E88.18335
G1 X3.154 Y100.646 E95.65975
G1 X2.771 Y100.209 E95.8047
G1 X2.453 Y99.741 E95.94584
G1 X2.19 Y99.222 E96.09098
G1 X2.006 Y98.701 E96.22881
G1 X1.882 Y98.14 E96.37213
G1 X1.831 Y97.575 E96.51365
G1 X1.852 Y97.009 E96.65493
G1 X1.946 Y96.443 E96.79806
G1 X2.109 Y95.898 E96.93996
G1 X2.334 Y95.386 E97.07947
G1 X2.63 Y94.898 E97.22184
G1 X3.161 Y94.262 E97.42852
G1 X4.204 Y93.218 E97.79664
G1 X4.458 Y92.641 E97.9539
G1 X4.746 Y92.164 E98.0929
G1 X5.28 Y91.524 E98.30082
G1 X5.782 Y91.022 E98.47791
G1 X6.219 Y90.638 E98.62303
G1 X6.684 Y90.323 E98.76313
G1 X6.953 Y90.187 E98.83832
G1 X12.401 Y84.739 E100.76025
G1 X12.524 Y84.494 E100.82864
G1 X12.845 Y84.014 E100.97268
G1 X13.231 Y83.573 E101.11888
G1 X13.742 Y83.062 E101.29915
G1 X14.183 Y82.674 E101.44567
G1 X14.648 Y82.358 E101.58592
G1 X15.15 Y82.105 E101.72614
G1 X15.404 Y82.016 E101.79328
M205 X25
G0 F4800 X15 Y82.18
M205 X20
G1 F480 X15 Y112.492 E109.35464
M205 X25
G0 F4800 X12 Y109.492
M205 X20
G1 F480 X12 Y85.14 E115.42927
M205 X25
G0 F4800 X9 Y88.14
M205 X20
G1 F480 X9 Y106.492 E120.0072
M205 X25
G0 F4800 X6 Y103.492
M205 X20
G1 F480 X6 Y90.83 E123.16575
M205 X25
G0 F4800 X3 Y94.454
M205 X20
G1 F480 X3 Y100.47 E124.66644
M205 X25
G0 F4800 X18 Y115.492
M205 X20
G1 F480 X18 Y79.42 E133.66464
M205 X25
G0 F4800 X21 Y76.42
M205 X20
G1 F480 X21 Y118.492 E144.15954
M205 X25
G0 F4800 X24 Y121.492
M205 X20
G1 F480 X24 Y73.42 E156.15115
M205 X25
G0 F4800 X27 Y70.42
M205 X20
G1 F480 X27 Y123.132 E169.30021
M205 X25
G0 F4800 X30 Y122.43
M205 X20
G1 F480 X30 Y67.42 E183.02251
M205 X25
G0 F4800 X33 Y64.42
M205 X20
G1 F480 X33 Y119.579 E196.78198
M205 X25
G0 F4800 X36 Y116.579
M205 X20
G1 F480 X36 Y61.42 E210.54145
M205 X25
G0 F4800 X39 Y58.42
M205 X20
G1 F480 X39 Y113.579 E224.30092
M205 X25
G0 F4800 X42 Y110.579
M205 X20
G1 F480 X42 Y55.42 E238.06039
M205 X25
G0 F4800 X45 Y52.42
M205 X20
G1 F480 X45 Y107.579 E251.81986
M205 X25
G0 F4800 X48 Y104.579
M205 X20
G1 F480 X48 Y49.42 E265.57932
M205 X25
G0 F4800 X51 Y46.42
M205 X20
G1 F480 X51 Y101.579 E279.33879
M205 X25
G0 F4800 X54 Y98.579
M205 X20
G1 F480 X54 Y43.42 E293.09826
M205 X25
G0 F4800 X57 Y40.421
M205 X20
G1 F480 X57 Y95.579 E306.85748
M205 X25
G0 F4800 X60 Y92.579
M205 X20
G1 F480 X60 Y37.421 E320.6167
M205 X25
G0 F4800 X63 Y34.421
M205 X20
G1 F480 X63 Y89.579 E334.37592
M205 X25
G0 F4800 X66 Y86.871
M205 X20
G1 F480 X66 Y31.421 E348.20798
M205 X25
G0 F4800 X69 Y28.421
M205 X20
G1 F480 X69 Y93.3 E364.39211
M205 X25
G0 F4800 X72 Y98.303
M205 X20
G1 F480 X72 Y25.421 E382.5726
M205 X25
G0 F4800 X75 Y22.421
M205 X20
G1 F480 X75 Y101.238 E402.23358
M205 X25
G0 F4800 X78 Y103.194
M205 X20
G1 F480 X78 Y19.421 E423.13084
M205 X25
G0 F4800 X81 Y16.421
M205 X20
G1 F480 X81 Y104.469 E445.0945
M205 X25
G0 F4800 X84 Y105.214
M205 X20
G1 F480 X84 Y13.421 E467.99236
M205 X25
G0 F4800 X87 Y10.421
M205 X20
G1 F480 X87 Y105.467 E491.70168
M205 X25
G0 F4800 X90 Y105.274
M205 X20
G1 F480 X90 Y66.28 E501.42877
M205 X25
G0 F4800 X93 Y66.955
M205 X20
G1 F480 X93 Y104.611 E510.8221
M205 X25
G0 F4800 X96 Y103.409
M205 X20
G1 F480 X96 Y68.154 E519.61649
M205 X25
G0 F4800 X99 Y70.002
M205 X20
G1 F480 X99 Y101.556 E527.48767
M205 X25
G0 F4800 X102 Y98.785
M205 X20
G1 F480 X102 Y72.774 E533.97614
M205 X25
G0 F4800 X105 Y77.335
M205 X20
G1 F480 X105 Y94.235 E538.19186
M205 X25
G0 F4800 X89.273 Y65.636
G0 X88.862 Y64.518
G0 X90 Y62.578
M205 X20
G1 F480 X90 Y7.421 E551.95083
M205 X25
G0 F4800 X93 Y4.421
M205 X20
G1 F480 X93 Y59.578 E565.7098
M205 X25
G0 F4800 X96 Y56.578
M205 X20
G1 F480 X96 Y2.085 E579.30314
M205 X25
G0 F4800 X99 Y2.113
M205 X20
G1 F480 X99 Y53.578 E592.14113
M205 X25
G0 F4800 X102 Y50.578
M205 X20
G1 F480 X102 Y4.522 E603.62985
M205 X25
G0 F4800 X105 Y7.059
M205 X20
G1 F480 X105 Y47.578 E613.73735
M205 X25
G0 F4800 X108 Y44.578
M205 X20
G1 F480 X108 Y10.018 E622.35838
M205 X25
G0 F4800 X111 Y13.521
M205 X20
G1 F480 X111 Y41.578 E629.35723
M205 X25
G0 F4800 X114 Y38.578
M205 X20
G1 F480 X114 Y16.515 E634.86087
M205 X25
G0 F4800 X117 Y18.903
M205 X20
G1 F480 X117 Y35.578 E639.02046
M205 X25
G0 F4800 X120 Y32.578
M205 X20
G1 F480 X120 Y22.522 E641.52894
M205 X25
G0 F4800 X123 Y26.367
M205 X20
G1 F480 X123 Y28.722 E642.1164
;TIME_ELAPSED:333.750684
;LAYER:-6
M205 X25
G0 F4800 X123.241 Y28.613 Z.9
M205 X20
;TYPE:SUPPORT
G1 F900 X123.299 Y28.264 E642.14287
M205 X25
M205 X20
G1 X96.728 Y1.693 E644.95497
M205 X25
G0 F4800 X97.328 Y1.638
M205 X20
G1 F900 X97.822 Y1.656 E644.99196
M205 X25
M205 X20
G1 X123.338 Y27.171 E647.69234
M205 X25
M205 X20
G1 X123.308 Y26.836 E647.71751
M205 X25
M205 X20
G1 X123.178 Y26.249 E647.76251
M205 X25
M205 X20
G1 X122.981 Y25.694 E647.80658
M205 X25
M205 X20
G1 X122.97 Y25.672 E647.80842
M205 X25
M205 X20
G1 X99.344 Y2.046 E650.30883
M205 X25
G0 F4800 X95.836 Y1.932
M205 X20
G1 F900 X123.074 Y29.17 E653.19151
M205 X25
M205 X20
M205 X25
M205 X20
G1 X123.241 Y28.613 E653.23503
M205 X25
G0 F4800 X122.704 Y29.931
M205 X20
G1 F900 X122.526 Y30.224 E653.26069
M205 X25
M205 X20
G1 X122.226 Y30.585 E653.29581
M205 X25
M205 X20
G1 X94.407 Y2.766 E656.23998
M205 X25
M205 X20
G1 X94.12 Y3.015 E656.26842
M205 X25
M205 X20
G1 X93.823 Y3.313 E656.2999
M205 X25
M205 X20
G1 X121.684 Y31.174 E659.24852
M205 X25
M205 X20
G1 X121.118 Y31.74 E659.30842
M205 X25
M205 X20
G1 X93.257 Y3.879 E662.25704
M205 X25
M205 X20
