;FLAVOR:RepRap
;TIME:7852
;Generated with Cura_SteamEngine 2.3.1
M104 S190
M109 S190

;LAYER_COUNT:39
;LAYER:-7
M107
M205 X25
G1 F2400 E-1
G1 Z20.4
G0 F4800 X81.986 Y15.435 Z1
M205 X20
G1 Z.6
G1 F2400 E0
G1 F480 X82.241 Y14.861 E0.15668
G1 X82.532 Y14.379 E0.29713
G1 X83.064 Y13.741 E0.50435
G1 X83.558 Y13.247 E0.67862
G1 X83.999 Y12.859 E0.82514
G1 X84.464 Y12.544 E0.96525
G1 X84.733 Y12.408 E1.04044
G1 X90.189 Y6.952 E2.96519
G1 X90.312 Y6.707 E3.03357
G1 X90.633 Y6.227 E3.17762
G1 X91.019 Y5.786 E3.32381
G1 X91.526 Y5.279 E3.50267
G1 X91.967 Y4.891 E3.6492
G1 X92.432 Y4.575 E3.78944
G1 X92.934 Y4.322 E3.92967
G1 X93.188 Y4.233 E3.99681
G1 X94.263 Y3.159 E4.37587
G1 X94.699 Y2.776 E4.52063
G1 X95.17 Y2.456 E4.66267
G1 X95.683 Y2.195 E4.80625
G1 X96.207 Y2.01 E4.94487
G1 X96.771 Y1.885 E5.08898
G1 X97.336 Y1.834 E5.23049
G1 X97.902 Y1.855 E5.37178
G1 X98.468 Y1.949 E5.5149
G1 X99.009 Y2.11 E5.6557
G1 X99.529 Y2.339 E5.79744
G1 X100.012 Y2.632 E5.93836
G1 X100.65 Y3.164 E6.14558
G1 X121.841 Y24.355 E13.62127
G1 X122.224 Y24.791 E13.76604
G1 X122.544 Y25.262 E13.90808
G1 X122.805 Y25.775 E14.05166
G1 X122.99 Y26.299 E14.19028
G1 X123.115 Y26.863 E14.33438
G1 X123.166 Y27.428 E14.4759
G1 X123.145 Y27.994 E14.61718
G1 X123.051 Y28.56 E14.76031
G1 X122.89 Y29.101 E14.90111
G1 X122.661 Y29.621 E15.04284
G1 X122.368 Y30.104 E15.18376
G1 X121.836 Y30.742 E15.39098
G1 X30.737 Y121.841 E47.52862
G1 X30.301 Y122.224 E47.67338
G1 X29.83 Y122.544 E47.81542
G1 X29.317 Y122.805 E47.959
G1 X28.793 Y122.99 E48.09762
G1 X28.229 Y123.115 E48.24173
G1 X27.664 Y123.166 E48.38324
G1 X27.098 Y123.145 E48.52453
G1 X26.532 Y123.051 E48.66765
G1 X25.991 Y122.89 E48.80845
G1 X25.471 Y122.661 E48.95019
G1 X24.988 Y122.368 E49.09111
G1 X24.35 Y121.836 E49.29833
G1 X21.279 Y118.766 E50.38153
G1 X20.723 Y118.522 E50.53299
G1 X20.233 Y118.228 E50.67554
G1 X19.585 Y117.689 E50.88579
G1 X17.216 Y115.318 E51.72187
G1 X16.818 Y114.868 E51.87173
G1 X16.501 Y114.398 E52.01315
G1 X16.247 Y113.896 E52.15349
G1 X16.158 Y113.645 E52.21992
G1 X11.379 Y108.866 E53.90584
G1 X10.823 Y108.622 E54.0573
G1 X10.333 Y108.328 E54.19985
G1 X9.685 Y107.789 E54.4101
G1 X7.317 Y105.419 E55.24583
G1 X6.919 Y104.969 E55.39569
G1 X6.602 Y104.499 E55.53711
G1 X6.348 Y103.997 E55.67745
G1 X6.259 Y103.746 E55.74388
G1 X3.159 Y100.645 E56.83767
G1 X2.776 Y100.209 E56.98243
G1 X2.456 Y99.738 E57.12447
G1 X2.195 Y99.225 E57.26805
G1 X2.01 Y98.701 E57.40667
G1 X1.885 Y98.137 E57.55077
G1 X1.834 Y97.572 E57.69229
G1 X1.855 Y97.006 E57.83357
G1 X1.949 Y96.44 E57.9767
G1 X2.11 Y95.899 E58.1175
G1 X2.339 Y95.379 E58.25924
G1 X2.632 Y94.896 E58.40016
G1 X3.164 Y94.258 E58.60738
G1 X81.986 Y15.435 E86.41414
M205 X25
G0 F4800 X81 Y16.421
M205 X20
G1 F480 X81 Y71.578 E100.17311
M205 X25
G0 F4800 X84 Y68.578
M205 X20
G1 F480 X84 Y12.858 E114.07252
M205 X25
G0 F4800 X87 Y10.141
M205 X20
G1 F480 X87 Y65.578 E127.90134
M205 X25
G0 F4800 X90 Y62.578
M205 X20
G1 F480 X90 Y7.141 E141.73015
M205 X25
G0 F4800 X93 Y4.298
M205 X20
G1 F480 X93 Y59.578 E155.5198
M205 X25
G0 F4800 X96 Y56.578
M205 X20
G1 F480 X96 Y2.083 E169.11364
M205 X25
G0 F4800 X99 Y2.108
M205 X20
G1 F480 X99 Y53.578 E181.95288
M205 X25
G0 F4800 X102 Y50.578
M205 X20
G1 F480 X102 Y4.514 E193.44359
M205 X25
G0 F4800 X105 Y7.514
M205 X20
G1 F480 X105 Y47.578 E203.4376
M205 X25
G0 F4800 X108 Y44.578
M205 X20
G1 F480 X108 Y10.514 E211.9349
M205 X25
G0 F4800 X111 Y13.514
M205 X20
G1 F480 X111 Y41.578 E218.93549
M205 X25
G0 F4800 X114 Y38.578
M205 X20
G1 F480 X114 Y16.514 E224.43938
M205 X25
G0 F4800 X117 Y19.514
M205 X20
G1 F480 X117 Y35.578 E228.44656
M205 X25
G0 F4800 X120 Y32.578
M205 X20
G1 F480 X120 Y22.514 E230.95703
M205 X25
G0 F4800 X123 Y26.345
M205 X20
G1 F480 X123 Y28.732 E231.55247
M205 X25
G0 F4800 X78 Y19.421
M205 X20
G1 F480 X78 Y74.578 E245.31144
M205 X25
G0 F4800 X75 Y77.578
M205 X20
G1 F480 X75 Y22.421 E259.07041
M205 X25
G0 F4800 X72 Y25.421
M205 X20
G1 F480 X72 Y80.578 E272.82938
M205 X25
G0 F4800 X69 Y83.578
M205 X20
G1 F480 X69 Y28.421 E286.58835
M205 X25
G0 F4800 X66 Y31.421
M205 X20
G1 F480 X66 Y86.578 E300.34732
M205 X25
G0 F4800 X63 Y89.578
M205 X20
G1 F480 X63 Y34.421 E314.10629
M205 X25
G0 F4800 X60 Y37.421
M205 X20
G1 F480 X60 Y92.578 E327.86526
M205 X25
G0 F4800 X57 Y95.578
M205 X20
G1 F480 X57 Y40.421 E341.62423
M205 X25
G0 F4800 X54 Y43.421
M205 X20
G1 F480 X54 Y98.578 E355.3832
M205 X25
G0 F4800 X51 Y101.578
M205 X20
G1 F480 X51 Y46.421 E369.14217
M205 X25
G0 F4800 X48 Y49.421
M205 X20
G1 F480 X48 Y104.578 E382.90114
M205 X25
G0 F4800 X45 Y107.578
M205 X20
G1 F480 X45 Y52.421 E396.66011
M205 X25
G0 F4800 X42 Y55.421
M205 X20
G1 F480 X42 Y110.578 E410.41908
M205 X25
G0 F4800 X39 Y113.578
M205 X20
G1 F480 X39 Y58.421 E424.17805
M205 X25
G0 F4800 X36 Y61.421
M205 X20
G1 F480 X36 Y116.578 E437.93702
M205 X25
G0 F4800 X33 Y119.578
M205 X20
G1 F480 X33 Y64.421 E451.69599
M205 X25
G0 F4800 X30 Y67.421
M205 X20
G1 F480 X30 Y122.429 E465.41779
M205 X25
G0 F4800 X27 Y123.128
M205 X20
G1 F480 X27 Y70.421 E478.5656
M205 X25
G0 F4800 X24 Y73.421
M205 X20
G1 F480 X24 Y121.486 E490.55546
M205 X25
G0 F4800 X21 Y118.643
M205 X20
G1 F480 X21 Y76.421 E501.08779
M205 X25
G0 F4800 X18 Y79.421
M205 X20
G1 F480 X18 Y116.102 E510.2379
M205 X25
G0 F4800 X15 Y112.487
M205 X20
G1 F480 X15 Y82.421 E517.73789
M205 X25
G0 F4800 X12 Y85.421
M205 X20
G1 F480 X12 Y109.487 E523.74118
M205 X25
G0 F4800 X9 Y107.103
M205 X20
G1 F480 X9 Y88.421 E528.40142
M205 X25
G0 F4800 X6 Y91.421
M205 X20
G1 F480 X6 Y103.486 E531.41105
M205 X25
G0 F4800 X3 Y100.463
M205 X20
G1 F480 X3 Y94.454 E532.91
;TIME_ELAPSED:278.556691
;LAYER:-6
M205 X25
G0 F4800 X2.771 Y94.412 Z.9
M205 X20
;TYPE:SUPPORT
G1 F900 X2.468 Y94.778 E532.94556
M205 X25
M205 X20
G1 X2.293 Y95.066 E532.97078
M205 X25
M205 X20
G1 X29.938 Y122.71 E535.89648
M205 X25
M205 X20
G1 X29.934 Y122.714 E535.89691
M205 X25
M205 X20
G1 X29.4 Y122.984 E535.94169
M205 X25
M205 X20
G1 X29.164 Y123.068 E535.96043
M205 X25
M205 X20
G1 X1.923 Y95.827 E538.84343
M205 X25
M205 X20
G1 X1.921 Y95.833 E538.8439
M205 X25
M205 X20
G1 X1.754 Y96.389 E538.88735
M205 X25
M205 X20
G1 X1.697 Y96.732 E538.91337
M205 X25
M205 X20
G1 X28.273 Y123.308 E541.72599
M205 X25
M205 X20
G1 X28.258 Y123.312 E541.72715
M205 X25
M205 X20
G1 X27.666 Y123.365 E541.77163
M205 X25
M205 X20
G1 X27.181 Y123.347 E541.80795
M205 X25
M205 X20
G1 X1.656 Y97.822 E544.50934
M205 X25
M205 X20
G1 X1.687 Y98.166 E544.53519
M205 X25
M205 X20
G1 X1.817 Y98.754 E544.58026
M205 X25
M205 X20
G1 X2.014 Y99.308 E544.62426
M205 X25
M205 X20
G1 X2.018 Y99.316 E544.62493
M205 X25
M205 X20
G1 X25.665 Y122.963 E547.12756
M205 X25
G0 F4800 X30.592 Y122.233
M205 X20
G1 F900 X2.771 Y94.412 E550.07194
M205 X25
G0 F4800 X3.314 Y93.823
M205 X20
G1 F900 X31.175 Y121.685 E553.02061
M205 X25
M205 X20
G1 X30.876 Y121.984 E553.05226
M205 X25
M205 X20
G1 X30.592 Y122.233 E553.08052
M205 X25
G0 F4800 X31.741 Y121.119
M205 X20
G1 F900 X3.879 Y93.258 E556.02919
M205 X25
M205 X20
G1 X3.314 Y93.823 E556.08899
M205 X25
G0 F4800 X4.445 Y92.692
M205 X20
G1 F900 X32.307 Y120.553 E559.03766
M205 X25
M205 X20
G1 X31.741 Y121.119 E559.09756
M205 X25
G0 F4800 X32.872 Y119.988
M205 X20
G1 F900 X5.011 Y92.126 E562.04623
M205 X25
M205 X20
G1 X4.445 Y92.692 E562.10613
M205 X25
G0 F4800 X5.576 Y91.561
M205 X20
G1 F900 X33.438 Y119.422 E565.0548
M205 X25
M205 X20
G1 X32.872 Y119.988 E565.1147
M205 X25
G0 F4800 X34.004 Y118.856
M205 X20
G1 F900 X6.142 Y90.995 E568.06337
M205 X25
M205 X20
G1 X5.576 Y91.561 E568.12327
M205 X25
G0 F4800 X6.708 Y90.429
M205 X20
G1 F900 X34.569 Y118.291 E571.07194
M205 X25
M205 X20
G1 X34.004 Y118.856 E571.13173
M205 X25
G0 F4800 X35.135 Y117.725
M205 X20
G1 F900 X7.274 Y89.864 E574.08035
M205 X25
M205 X20
G1 X6.708 Y90.429 E574.1402
M205 X25
G0 F4800 X7.839 Y89.298
M205 X20
G1 F900 X35.701 Y117.159 E577.08887
M205 X25
M205 X20
G1 X35.135 Y117.725 E577.14877
M205 X25
G0 F4800 X36.266 Y116.594
M205 X20
G1 F900 X8.405 Y88.732 E580.09744
M205 X25
M205 X20
G1 X7.839 Y89.298 E580.15734
M205 X25
G0 F4800 X8.971 Y88.167
M205 X20
G1 F900 X36.832 Y116.028 E583.10596
M205 X25
M205 X20
G1 X36.266 Y116.594 E583.16586
M205 X25
G0 F4800 X37.398 Y115.462
M205 X20
G1 F900 X9.536 Y87.601 E586.11453
M205 X25
M205 X20
G1 X8.971 Y88.167 E586.17437
M205 X25
G0 F4800 X10.102 Y87.035
M205 X20
G1 F900 X37.963 Y114.897 E589.12304
M205 X25
M205 X20
G1 X37.398 Y115.462 E589.18284
M205 X25
G0 F4800 X38.529 Y114.331
M205 X20
G1 F900 X10.668 Y86.469 E592.13151
M205 X25
M205 X20
G1 X10.102 Y87.035 E592.19141
M205 X25
G0 F4800 X11.233 Y85.904
M205 X20
G1 F900 X39.095 Y113.765 E595.14008
M205 X25
M205 X20
G1 X38.529 Y114.331 E595.19998
M205 X25
G0 F4800 X39.66 Y113.2
M205 X20
G1 F900 X11.799 Y85.338 E598.14865
M205 X25
M205 X20
G1 X11.233 Y85.904 E598.20855
M205 X25
G0 F4800 X12.365 Y84.772
M205 X20
G1 F900 X40.226 Y112.634 E601.15722
M205 X25
M205 X20
G1 X39.66 Y113.2 E601.21712
M205 X25
G0 F4800 X40.792 Y112.068
M205 X20
G1 F900 X12.93 Y84.207 E604.16579
M205 X25
M205 X20
G1 X12.365 Y84.772 E604.22559
M205 X25
G0 F4800 X13.496 Y83.641
M205 X20
G1 F900 X41.357 Y111.502 E607.1742
M205 X25
M205 X20
G1 X40.792 Y112.068 E607.23405
M205 X25
G0 F4800 X41.923 Y110.937
M205 X20
G1 F900 X14.062 Y83.075 E610.18272
M205 X25
M205 X20
G1 X13.496 Y83.641 E610.24262
M205 X25
G0 F4800 X14.627 Y82.51
M205 X20
G1 F900 X42.489 Y110.371 E613.19129
M205 X25
M205 X20
G1 X41.923 Y110.937 E613.25119
M205 X25
G0 F4800 X43.055 Y109.805
M205 X20
G1 F900 X15.193 Y81.944 E616.19986
M205 X25
M205 X20
G1 X14.627 Y82.51 E616.25976
M205 X25
G0 F4800 X15.759 Y81.378
M205 X20
G1 F900 X43.62 Y109.24 E619.20843
M205 X25
M205 X20
G1 X43.055 Y109.805 E619.26823
M205 X25
G0 F4800 X44.186 Y108.674
M205 X20
G1 F900 X16.324 Y80.813 E622.2169
M205 X25
M205 X20
G1 X15.759 Y81.378 E622.27669
M205 X25
G0 F4800 X16.89 Y80.247
M205 X20
G1 F900 X44.752 Y108.108 E625.22536
M205 X25
M205 X20
G1 X44.186 Y108.674 E625.28526
M205 X25
G0 F4800 X45.317 Y107.543
M205 X20
G1 F900 X17.456 Y79.681 E628.23393
M205 X25
M205 X20
G1 X16.89 Y80.247 E628.29383
M205 X25
G0 F4800 X18.022 Y79.116
M205 X20
G1 F900 X45.883 Y106.977 E631.24245
M205 X25
M205 X20
G1 X45.317 Y107.543 E631.30235
M205 X25
G0 F4800 X46.449 Y106.411
M205 X20
G1 F900 X18.587 Y78.55 E634.25102
M205 X25
M205 X20
G1 X18.022 Y79.116 E634.31087
M205 X25
G0 F4800 X19.153 Y77.984
M205 X20
G1 F900 X47.014 Y105.846 E637.25954
M205 X25
M205 X20
G1 X46.449 Y106.411 E637.31933
M205 X25
G0 F4800 X47.58 Y105.28
M205 X20
G1 F900 X19.719 Y77.419 E640.26795
M205 X25
M205 X20
G1 X19.153 Y77.984 E640.3278
M205 X25
G0 F4800 X20.284 Y76.853
M205 X20
G1 F900 X48.146 Y104.714 E643.27647
M205 X25
M205 X20
G1 X47.58 Y105.28 E643.33637
M205 X25
G0 F4800 X48.711 Y104.149
M205 X20
G1 F900 X20.85 Y76.287 E646.28504
M205 X25
M205 X20
G1 X20.284 Y76.853 E646.34494
M205 X25
G0 F4800 X21.416 Y75.721
M205 X20
G1 F900 X49.277 Y103.583 E649.29361
M205 X25
M205 X20
G1 X48.711 Y104.149 E649.35351
M205 X25
G0 F4800 X49.843 Y103.017
M205 X20
G1 F900 X21.981 Y75.156 E652.30218
M205 X25
M205 X20
G1 X21.416 Y75.721 E652.36197
M205 X25
G0 F4800 X22.547 Y74.59
M205 X20
G1 F900 X50.408 Y102.451 E655.31059
M205 X25
M205 X20
G1 X49.843 Y103.017 E655.37044
M205 X25
G0 F4800 X50.974 Y101.886
M205 X20
G1 F900 X23.113 Y74.024 E658.31911
M205 X25
M205 X20
G1 X22.547 Y74.59 E658.37901
M205 X25
G0 F4800 X23.678 Y73.459
M205 X20
G1 F900 X51.54 Y101.32 E661.32768
M205 X25
M205 X20
G1 X50.974 Y101.886 E661.38758
M205 X25
G0 F4800 X52.105 Y100.754
M205 X20
G1 F900 X24.244 Y72.893 E664.3362
M205 X25
M205 X20
G1 X23.678 Y73.459 E664.3961
M205 X25
G0 F4800 X24.81 Y72.327
M205 X20
G1 F900 X52.671 Y100.189 E667.34477
M205 X25
M205 X20
G1 X52.105 Y100.754 E667.40461
M205 X25
G0 F4800 X53.237 Y99.623
M205 X20
G1 F900 X25.375 Y71.762 E670.35328
M205 X25
M205 X20
G1 X24.81 Y72.327 E670.41308
M205 X25
G0 F4800 X25.941 Y71.196
M205 X20
G1 F900 X53.803 Y99.057 E673.36175
M205 X25
M205 X20
G1 X53.237 Y99.623 E673.42165
M205 X25
G0 F4800 X54.368 Y98.492
M205 X20
G1 F900 X26.507 Y70.63 E676.37032
M205 X25
M205 X20
G1 X25.941 Y71.196 E676.43022
M205 X25
G0 F4800 X27.072 Y70.065
M205 X20
G1 F900 X54.934 Y97.926 E679.37889
M205 X25
M205 X20
G1 X54.368 Y98.492 E679.43879
M205 X25
G0 F4800 X55.5 Y97.36
M205 X20
G1 F900 X27.638 Y69.499 E682.38746
M205 X25
M205 X20
G1 X27.072 Y70.065 E682.44736
M205 X25
G0 F4800 X28.204 Y68.933
M205 X20
G1 F900 X56.065 Y96.795 E685.39603
M205 X25
M205 X20
G1 X55.5 Y97.36 E685.45583
M205 X25
G0 F4800 X56.631 Y96.229
M205 X20
G1 F900 X28.77 Y68.368 E688.40444
M205 X25
M205 X20
G1 X28.204 Y68.933 E688.46429
M205 X25
G0 F4800 X29.335 Y67.802
M205 X20
G1 F900 X57.197 Y95.663 E691.41296
M205 X25
M205 X20
G1 X56.631 Y96.229 E691.47286
M205 X25
G0 F4800 X57.762 Y95.098
M205 X20
G1 F900 X29.901 Y67.236 E694.42153
M205 X25
M205 X20
G1 X29.335 Y67.802 E694.48143
M205 X25
G0 F4800 X30.467 Y66.67
M205 X20
G1 F900 X58.328 Y94.532 E697.4301
M205 X25
M205 X20
G1 X57.762 Y95.098 E697.49
M205 X25
G0 F4800 X58.894 Y93.966
M205 X20
G1 F900 X31.032 Y66.105 E700.43867
M205 X25
M205 X20
G1 X30.467 Y66.67 E700.49847
M205 X25
G0 F4800 X31.598 Y65.539
M205 X20
G1 F900 X59.459 Y93.401 E703.44714
M205 X25
M205 X20
G1 X58.894 Y93.966 E703.50693
M205 X25
G0 F4800 X60.025 Y92.835
M205 X20
G1 F900 X32.164 Y64.973 E706.4556
M205 X25
M205 X20
G1 X31.598 Y65.539 E706.5155
M205 X25
G0 F4800 X32.729 Y64.408
M205 X20
G1 F900 X60.591 Y92.269 E709.46417
M205 X25
M205 X20
G1 X60.025 Y92.835 E709.52407
M205 X25
G0 F4800 X61.156 Y91.703
M205 X20
G1 F900 X33.295 Y63.842 E712.47269
M205 X25
M205 X20
G1 X32.729 Y64.408 E712.53259
M205 X25
G0 F4800 X33.861 Y63.276
M205 X20
G1 F900 X61.722 Y91.138 E715.48126
M205 X25
M205 X20
G1 X61.156 Y91.703 E715.54111
M205 X25
G0 F4800 X62.288 Y90.572
M205 X20
G1 F900 X34.426 Y62.711 E718.48978
M205 X25
M205 X20
G1 X33.861 Y63.276 E718.54957
M205 X25
G0 F4800 X34.992 Y62.145
M205 X20
G1 F900 X62.854 Y90.006 E721.49824
M205 X25
M205 X20
G1 X62.288 Y90.572 E721.55814
M205 X25
G0 F4800 X63.419 Y89.441
M205 X20
G1 F900 X35.558 Y61.579 E724.50681
M205 X25
M205 X20
G1 X34.992 Y62.145 E724.56671
M205 X25
G0 F4800 X36.123 Y61.014
M205 X20
G1 F900 X63.985 Y88.875 E727.51538
M205 X25
M205 X20
G1 X63.419 Y89.441 E727.57528
M205 X25
G0 F4800 X64.551 Y88.309
M205 X20
G1 F900 X36.689 Y60.448 E730.52395
M205 X25
M205 X20
G1 X36.123 Y61.014 E730.58385
M205 X25
G0 F4800 X37.255 Y59.882
M205 X20
G1 F900 X65.116 Y87.744 E733.53252
M205 X25
M205 X20
G1 X64.551 Y88.309 E733.59232
M205 X25
G0 F4800 X65.682 Y87.178
M205 X20
G1 F900 X37.821 Y59.317 E736.54093
M205 X25
M205 X20
G1 X37.255 Y59.882 E736.60078
M205 X25
G0 F4800 X38.386 Y58.751
M205 X20
G1 F900 X66.248 Y86.612 E739.54945
M205 X25
M205 X20
G1 X65.682 Y87.178 E739.60935
M205 X25
G0 F4800 X66.813 Y86.047
M205 X20
G1 F900 X38.952 Y58.185 E742.55802
M205 X25
M205 X20
G1 X38.386 Y58.751 E742.61792
M205 X25
G0 F4800 X39.518 Y57.62
M205 X20
G1 F900 X67.379 Y85.481 E745.56654
M205 X25
M205 X20
G1 X66.813 Y86.047 E745.62644
M205 X25
G0 F4800 X67.945 Y84.915
M205 X20
G1 F900 X40.083 Y57.054 E748.57511
M205 X25
M205 X20
G1 X39.518 Y57.62 E748.63496
M205 X25
G0 F4800 X40.649 Y56.488
M205 X20
G1 F900 X68.51 Y84.35 E751.58363
M205 X25
M205 X20
G1 X67.945 Y84.915 E751.64342
M205 X25
G0 F4800 X69.076 Y83.784
M205 X20
G1 F900 X41.215 Y55.922 E754.59209
M205 X25
M205 X20
G1 X40.649 Y56.488 E754.65199
M205 X25
G0 F4800 X41.78 Y55.357
M205 X20
G1 F900 X69.642 Y83.218 E757.60066
M205 X25
M205 X20
G1 X69.076 Y83.784 E757.66057
M205 X25
G0 F4800 X70.207 Y82.653
M205 X20
G1 F900 X42.346 Y54.791 E760.60923
M205 X25
M205 X20
G1 X41.78 Y55.357 E760.66914
M205 X25
G0 F4800 X42.912 Y54.225
M205 X20
G1 F900 X70.773 Y82.087 E763.6178
M205 X25
M205 X20
G1 X70.207 Y82.653 E763.67771
M205 X25
G0 F4800 X71.339 Y81.521
M205 X20
G1 F900 X43.477 Y53.66 E766.62638
M205 X25
M205 X20
G1 X42.912 Y54.225 E766.68617
M205 X25
G0 F4800 X44.043 Y53.094
M205 X20
G1 F900 X71.904 Y80.955 E769.63479
M205 X25
M205 X20
G1 X71.339 Y81.521 E769.69464
M205 X25
G0 F4800 X72.47 Y80.39
M205 X20
G1 F900 X44.609 Y52.528 E772.6433
M205 X25
